dist/postcss-logo-type.svg

<?xml version="1.0" encoding="UTF-8" standalone="no"?>
<svg width="157px" height="33px" viewBox="0 0 157 33" version="1.1" xmlns="http://www.w3.org/2000/svg" xmlns:xlink="http://www.w3.org/1999/xlink" xmlns:sketch="http://www.bohemiancoding.com/sketch/ns">
    <!-- Generator: sketchtool 3.4 (375) - http://www.bohemiancoding.com/sketch -->
    <title>postcss-logo-type</title>
    <desc>Created with sketchtool.</desc>
    <defs></defs>
    <g id="Logo-Variations" stroke="none" stroke-width="1" fill="none" fill-rule="evenodd" sketch:type="MSPage">
        <g id="Color" sketch:type="MSArtboardGroup" transform="translate(-160.000000, -97.000000)">
            <g id="postcss-logo-horizontal" sketch:type="MSLayerGroup" transform="translate(65.000000, 74.000000)">
                <g id="postcss-logo-type" transform="translate(92.000000, 13.000000)" sketch:type="MSShapeGroup">
                    <g id="Name-Path" transform="translate(3.000000, 10.000000)">
                        <path d="M132.29293,23.8466797 L135.751914,23.0605469 C137.144499,27.2383021 140.161722,29.3271484 144.803672,29.3271484 C147.229465,29.3271484 149.05627,28.8142955 150.284141,27.7885742 C151.512011,26.7628529 152.125938,25.389006 152.125938,23.6669922 C152.125938,22.3642513 151.658006,21.3160847 150.722129,20.5224609 C149.786252,19.7288372 148.704394,19.1822932 147.476524,18.8828125 L141.344688,17.3554688 C139.75744,16.9511699 138.458462,16.4607776 137.447715,15.8842773 C136.436968,15.3077771 135.579717,14.4205789 134.875938,13.2226562 C134.172158,12.0247336 133.820274,10.6546301 133.820274,9.11230469 C133.820274,6.55174501 134.786084,4.51156359 136.717734,2.99169922 C138.649385,1.47183485 141.12755,0.711914062 144.152305,0.711914062 C149.722645,0.711914062 153.383741,3.23500081 155.135703,8.28125 L151.654258,9.31445312 C151.249959,7.51756914 150.299122,6.15869601 148.801719,5.23779297 C147.304315,4.31688993 145.709605,3.85644531 144.017539,3.85644531 C142.340447,3.85644531 140.84681,4.29817267 139.536582,5.18164062 C138.226354,6.06510858 137.57125,7.3154216 137.57125,8.93261719 C137.57125,11.1936962 139.233343,12.7210247 142.557578,13.5146484 L148.285117,14.8847656 C153.526029,16.1425844 156.146445,18.9651473 156.146445,23.3525391 C156.146445,26.0029429 155.161917,28.2078363 153.192832,29.9672852 C151.223747,31.7267341 148.449849,32.6064453 144.871055,32.6064453 C138.522065,32.6064453 134.329398,29.6865526 132.29293,23.8466797 Z M106.213477,23.8466797 L109.672461,23.0605469 C111.065046,27.2383021 114.082269,29.3271484 118.724219,29.3271484 C121.150012,29.3271484 122.976817,28.8142955 124.204688,27.7885742 C125.432558,26.7628529 126.046484,25.389006 126.046484,23.6669922 C126.046484,22.3642513 125.578553,21.3160847 124.642676,20.5224609 C123.706799,19.7288372 122.624941,19.1822932 121.39707,18.8828125 L115.265234,17.3554688 C113.677987,16.9511699 112.379009,16.4607776 111.368262,15.8842773 C110.357515,15.3077771 109.500264,14.4205789 108.796484,13.2226562 C108.092705,12.0247336 107.74082,10.6546301 107.74082,9.11230469 C107.74082,6.55174501 108.706631,4.51156359 110.638281,2.99169922 C112.569932,1.47183485 115.048097,0.711914062 118.072852,0.711914062 C123.643192,0.711914062 127.304288,3.23500081 129.05625,8.28125 L125.574805,9.31445312 C125.170506,7.51756914 124.219669,6.15869601 122.722266,5.23779297 C121.224862,4.31688993 119.630152,3.85644531 117.938086,3.85644531 C116.260994,3.85644531 114.767357,4.29817267 113.457129,5.18164062 C112.146901,6.06510858 111.491797,7.3154216 111.491797,8.93261719 C111.491797,11.1936962 113.15389,12.7210247 116.478125,13.5146484 L122.205664,14.8847656 C127.446576,16.1425844 130.066992,18.9651473 130.066992,23.3525391 C130.066992,26.0029429 129.082464,28.2078363 127.113379,29.9672852 C125.144294,31.7267341 122.370396,32.6064453 118.791602,32.6064453 C112.442612,32.6064453 108.249945,29.6865526 106.213477,23.8466797 Z M100.726992,21.6904297 L104.230899,22.4765625 C102.553807,29.2298515 98.7654332,32.6064453 92.8656642,32.6064453 C88.9873896,32.6064453 85.943963,31.0416823 83.7352931,27.9121094 C81.5266232,24.7825364 80.4223048,20.9342676 80.4223048,16.3671875 C80.4223048,11.650367 81.575288,7.86199347 83.8812892,5.00195312 C86.1872903,2.14191278 89.2793817,0.711914062 93.1576563,0.711914062 C98.9076851,0.711914062 102.598729,3.99866505 104.230899,10.5722656 L100.614688,11.2910156 C99.2969727,6.4094808 96.8038335,3.96875 93.1351954,3.96875 C90.4248954,3.96875 88.3248187,5.103016 86.8349024,7.37158203 C85.3449861,9.64014806 84.6000392,12.8258258 84.6000392,16.9287109 C84.6000392,20.6871933 85.3637034,23.7006723 86.8910548,25.9692383 C88.4184062,28.2378043 90.4398703,29.3720703 92.9555079,29.3720703 C96.8637306,29.3720703 99.4541995,26.811549 100.726992,21.6904297 Z" id="CSS" fill="#3F526B"></path>
                        <path d="M4.68164062,32 L0.840820312,32 L0.840820312,1.34082031 L11.7119141,1.34082031 C15.1110196,1.34082031 17.6191325,2.26545299 19.2363281,4.11474609 C20.8535237,5.96403919 21.6621094,8.07160275 21.6621094,10.4375 C21.6621094,13.0729298 20.7823981,15.251619 19.0229492,16.9736328 C17.2635003,18.6956466 14.9612772,19.5566406 12.1162109,19.5566406 L4.68164062,19.5566406 L4.68164062,32 Z M4.68164062,16.3671875 L11.734375,16.3671875 C13.546233,16.3671875 15.0061794,15.8243869 16.1142578,14.7387695 C17.2223363,13.6531521 17.7763672,12.21941 17.7763672,10.4375 C17.7763672,8.91014861 17.2822315,7.54753203 16.2939453,6.34960938 C15.3056591,5.15168672 13.8756604,4.55273438 12.0039062,4.55273438 L4.68164062,4.55273438 L4.68164062,16.3671875 Z M32.1136329,32.6064453 C28.999034,32.6064453 26.5695336,31.4534621 24.8250587,29.1474609 C23.0805838,26.8414598 22.2083595,23.9814624 22.2083595,20.5673828 C22.2083595,16.9586408 23.1891439,14.0761827 25.1507423,11.9199219 C27.1123406,9.76366109 29.5530714,8.68554688 32.4730079,8.68554688 C35.6025809,8.68554688 38.0695158,9.81981288 39.8738868,12.0883789 C41.6782578,14.3569449 42.5804298,17.1907382 42.5804298,20.5898438 C42.5804298,24.1237156 41.6071322,27.0099172 39.6605079,29.2485352 C37.7138836,31.4871531 35.1982838,32.6064453 32.1136329,32.6064453 L32.1136329,32.6064453 Z M32.3831642,29.7089844 C34.1800482,29.7089844 35.6849159,28.9677808 36.8978126,27.4853516 C38.1107093,26.0029223 38.7171485,23.6969558 38.7171485,20.5673828 C38.7171485,17.4228358 38.0807617,15.1430735 36.8079689,13.7280273 C35.535176,12.3129812 34.0452821,11.6054688 32.3382423,11.6054688 C30.5862804,11.6054688 29.1038734,12.3204681 27.8909767,13.7504883 C26.67808,15.1805085 26.0716407,17.445297 26.0716407,20.5449219 C26.0716407,23.8242351 26.67808,26.1713796 27.8909767,27.5864258 C29.1038734,29.0014719 30.6012542,29.7089844 32.3831642,29.7089844 L32.3831642,29.7089844 Z M43.7165235,26.1152344 L47.0856642,25.4189453 C47.8343658,28.2789857 50.2002276,29.7089844 54.1833204,29.7089844 C55.6507757,29.7089844 56.8936018,29.3795606 57.911836,28.7207031 C58.9300703,28.0618457 59.4391798,27.1334695 59.4391798,25.9355469 C59.4391798,24.1536369 58.1439453,23.0231144 55.5534376,22.5439453 L50.7692579,21.6455078 C48.8975038,21.286131 47.4076098,20.582362 46.2995313,19.5341797 C45.1914529,18.4859974 44.637422,17.1009201 44.637422,15.3789062 C44.637422,13.477204 45.3935993,11.8862369 46.9059767,10.605957 C48.418354,9.32567719 50.454792,8.68554688 53.0153517,8.68554688 C57.9418086,8.68554688 60.9814917,10.6096813 62.1344923,14.4580078 L58.9001173,15.1542969 C57.9717272,12.7883996 56.0625666,11.6054688 53.1725782,11.6054688 C51.735071,11.6054688 50.5558836,11.9012015 49.6349806,12.4926758 C48.7140775,13.0841501 48.2536329,13.911453 48.2536329,14.9746094 C48.2536329,16.6517011 49.4290769,17.7073546 51.7800001,18.1416016 L56.2048048,18.9277344 C60.831781,19.7662802 63.1452345,22.0048646 63.1452345,25.6435547 C63.1452345,27.7249453 62.2842405,29.4057553 60.5622267,30.6860352 C58.8402128,31.966315 56.5492201,32.6064453 53.6891798,32.6064453 C48.3135019,32.6064453 44.9893164,30.44273 43.7165235,26.1152344 L43.7165235,26.1152344 Z M78.286211,29.5742188 L78.286211,32.359375 C77.0433663,32.5240894 75.9652521,32.6064453 75.051836,32.6064453 C70.6644443,32.6064453 68.4707813,30.3154526 68.4707813,25.7333984 L68.4707813,12.0771484 L64.4502735,12.0771484 L64.4502735,9.31445312 L68.4707813,9.31445312 L68.6280079,3.609375 L71.9073048,3.29492188 L71.9073048,9.31445312 L76.9834767,9.31445312 L76.9834767,12.0771484 L71.9073048,12.0771484 L71.9073048,26.3173828 C71.9073048,28.653332 73.1201833,29.8212891 75.5459767,29.8212891 C76.3545744,29.8212891 77.2679768,29.7389331 78.286211,29.5742188 L78.286211,29.5742188 Z" id="Post" fill="#DD390A"></path>
                    </g>
                </g>
            </g>
        </g>
    </g>
</svg>

<svg width="157" height="33" viewBox="0 0 157 33" xmlns="http://www.w3.org/2000/svg"><title>postcss-logo-type</title><g fill="none" fill-rule="evenodd"><path d="M132.293 23.847l3.46-.786c1.39 4.178 4.41 6.267 9.05 6.267 2.426 0 4.253-.513 5.48-1.538 1.23-1.027 1.843-2.4 1.843-4.123 0-1.303-.468-2.35-1.404-3.145-.936-.793-2.018-1.34-3.245-1.64l-6.132-1.527c-1.588-.404-2.887-.894-3.897-1.47-1.01-.577-1.868-1.464-2.572-2.662s-1.056-2.568-1.056-4.11c0-2.56.966-4.6 2.898-6.12 1.93-1.52 4.41-2.28 7.434-2.28 5.57 0 9.232 2.522 10.984 7.568l-3.482 1.034c-.404-1.796-1.355-3.155-2.852-4.076-1.498-.92-3.092-1.382-4.784-1.382-1.678 0-3.17.442-4.48 1.326-1.312.883-1.967 2.133-1.967 3.75 0 2.262 1.663 3.79 4.988 4.583l5.727 1.37c5.24 1.258 7.86 4.08 7.86 8.468 0 2.65-.983 4.855-2.952 6.614-1.97 1.76-4.743 2.64-8.322 2.64-6.348 0-10.54-2.92-12.577-8.76zm-26.08 0l3.46-.786c1.392 4.178 4.41 6.267 9.05 6.267 2.427 0 4.254-.513 5.482-1.538 1.228-1.027 1.84-2.4 1.84-4.123 0-1.303-.466-2.35-1.402-3.145-.936-.793-2.018-1.34-3.246-1.64l-6.132-1.527c-1.587-.404-2.886-.894-3.897-1.47-1.01-.577-1.868-1.464-2.572-2.662-.703-1.198-1.055-2.568-1.055-4.11 0-2.56.967-4.6 2.898-6.12 1.932-1.52 4.41-2.28 7.435-2.28 5.57 0 9.23 2.522 10.983 7.568l-3.48 1.034c-.405-1.796-1.356-3.155-2.854-4.076-1.497-.92-3.092-1.382-4.784-1.382-1.677 0-3.17.442-4.48 1.326-1.31.883-1.966 2.133-1.966 3.75 0 2.262 1.662 3.79 4.986 4.583l5.728 1.37c5.24 1.258 7.86 4.08 7.86 8.468 0 2.65-.984 4.855-2.953 6.614-1.97 1.76-4.743 2.64-8.32 2.64-6.35 0-10.543-2.92-12.58-8.76zm-5.486-2.157l3.504.787c-1.676 6.753-5.465 10.13-11.364 10.13-3.88 0-6.922-1.565-9.13-4.695-2.21-3.13-3.314-6.978-3.314-11.545 0-4.717 1.153-8.505 3.46-11.365 2.305-2.86 5.397-4.29 9.276-4.29 5.75 0 9.44 3.287 11.073 9.86l-3.615.72c-1.318-4.883-3.81-7.323-7.48-7.323-2.71 0-4.81 1.133-6.3 3.402-1.49 2.268-2.235 5.454-2.235 9.557 0 3.757.764 6.77 2.29 9.04 1.528 2.268 3.55 3.402 6.066 3.402 3.908 0 6.498-2.56 7.77-7.682z" fill="#3F526B"/><path d="M4.682 32H.842V1.34h10.87c3.4 0 5.907.925 7.524 2.775 1.618 1.85 2.426 3.957 2.426 6.322 0 2.636-.88 4.815-2.64 6.537-1.758 1.722-4.06 2.583-6.906 2.583H4.682V32zm0-15.633h7.052c1.812 0 3.272-.543 4.38-1.628 1.108-1.087 1.662-2.52 1.662-4.303 0-1.527-.494-2.89-1.482-4.087-.988-1.198-2.418-1.797-4.29-1.797H4.682v11.814zm27.432 16.24c-3.115 0-5.544-1.154-7.29-3.46-1.743-2.306-2.616-5.166-2.616-8.58 0-3.608.98-6.49 2.943-8.647 1.962-2.156 4.403-3.234 7.323-3.234 3.13 0 5.597 1.134 7.4 3.402 1.805 2.27 2.707 5.103 2.707 8.502 0 3.534-.973 6.42-2.92 8.66-1.946 2.237-4.462 3.356-7.546 3.356zm.27-2.898c1.796 0 3.3-.742 4.514-2.225 1.213-1.482 1.82-3.788 1.82-6.918 0-3.144-.637-5.424-1.91-6.84-1.273-1.414-2.763-2.122-4.47-2.122-1.752 0-3.234.715-4.447 2.145-1.212 1.43-1.818 3.695-1.818 6.795 0 3.28.606 5.626 1.82 7.04 1.212 1.416 2.71 2.124 4.49 2.124zm11.333-3.595l3.37-.696c.747 2.86 3.113 4.29 7.096 4.29 1.468 0 2.71-.33 3.73-.99 1.017-.658 1.526-1.587 1.526-2.784 0-1.782-1.296-2.913-3.887-3.392l-4.784-.898c-1.872-.36-3.362-1.064-4.47-2.112-1.11-1.048-1.663-2.433-1.663-4.155 0-1.903.757-3.494 2.27-4.774 1.51-1.28 3.548-1.92 6.108-1.92 4.927 0 7.966 1.924 9.12 5.772l-3.235.696c-.928-2.366-2.837-3.55-5.727-3.55-1.438 0-2.617.297-3.538.89-.92.59-1.38 1.417-1.38 2.48 0 1.678 1.174 2.733 3.525 3.168l4.425.786c4.627.838 6.94 3.077 6.94 6.716 0 2.08-.86 3.762-2.583 5.042-1.722 1.28-4.013 1.92-6.873 1.92-5.376 0-8.7-2.163-9.973-6.49zm34.57 3.46v2.784c-1.244.164-2.322.246-3.235.246-4.388 0-6.58-2.29-6.58-6.873V12.077H64.45V9.314h4.02l.158-5.705 3.28-.315v6.02h5.075v2.762h-5.076v14.24c0 2.336 1.213 3.504 3.64 3.504.808 0 1.72-.08 2.74-.246z" fill="#DD390A"/></g></svg>
